!!!SOCIAL_FUNCTION:	game songs
!!!PDT:	1932
!!!OTL: No_124_Game_Song_(a).krn
!!!REG: Southwest
!!!LANG: Non-Tone
!!!LING_GROUP: Yuman-Cochimi
**kern	**kern
*staff2	*staff1
=1-	=1-
*clefF4	*clefF4
*k[]	*k[]
*M2/4	*M2/4
2r	4r
.	4C/
=2	=2
2r	12C/L
.	12C/
.	12C/J
.	4C/
=3||	=3||
*M3/4	*M3/4
4GG/	4C/
4GG/	4C/
4r	8AA/
.	16r
.	16C/
=4||	=4||
*M2/4	*M2/4
2r	12C/L
.	12C/
.	12C/J
.	4C/
=5	=5
2r	4C/
.	8AA/
.	16r
.	16C/
=6	=6
2r	12C/L
.	12C/
.	12C/J
.	4C/
=7	=7
2r	4C/
.	4C/
=8	=8
2r	12C/L
.	12C/
.	12C/J
.	4C/
=9||	=9||
*M3/4	*M3/4
2.r	4C/
.	4C/
.	8AA/
.	16r
.	16C/
=10||	=10||
*M2/4	*M2/4
2r	12C/L
.	12C/
.	12C/J
.	4C/
=11	=11
2r	4C/
.	8C/
.	16r
.	16C/
=12	=12
2r	12C/L
.	12C/
.	12C/J
.	4C/
=13||	=13||
*M3/4	*M3/4
2.r	4C/
.	4C/
.	8C/
.	16r
.	16C/
=14||	=14||
*M2/4	*M2/4
2r	12c\L
.	12c\
.	12c\J
.	4c\
=15	=15
2r	4c\
.	8.A\L
.	16G\Jk
=16	=16
2r	12c\L
.	12c\
.	12c\J
.	4c\
=17	=17
2r	4c\
.	8.A\L
.	16G\Jk
=18	=18
2r	12A\L
.	12E\
.	12D\J
.	(8.G/L
.	16C/Jk)
=19||	=19||
*M3/4	*M3/4
2.r	4C/
.	4C/
.	8BB/
.	16r
.	16C/
=20||	=20||
*M2/4	*M2/4
2r	12C/L
.	12C/
.	12C/J
.	4C/
=21||	=21||
*M3/4	*M3/4
2.r	4C/
.	8AA/
.	8r
.	8.r
.	16C/
=22||	=22||
*M2/4	*M2/4
2r	12C/L
.	12C/
.	12C/J
.	4C/
=23	=23
2r	4C/
.	4C/
=24	=24
2r	12C/L
.	12C/
.	12C/J
.	4C/
=25||	=25||
*M3/4	*M3/4
2.r	4C/
.	4C/
.	8AA/
.	16r
.	16C/
=26||	=26||
*M2/4	*M2/4
2r	12C/L
.	12C/
.	12C/J
.	4C/
=27	=27
2r	4C/
.	8C/
.	8r
==	==
*-	*-
